public/svg_assets/socials_icons/classroom.svg

<svg width="66" height="66" viewBox="0 0 66 66" fill="none" xmlns="http://www.w3.org/2000/svg">
<path d="M33 66C51.2254 66 66 51.2254 66 33C66 14.7746 51.2254 0 33 0C14.7746 0 0 14.7746 0 33C0 51.2254 14.7746 66 33 66Z" fill="#A1A1A1"/>
<path d="M39.7685 33.8581C40.8232 33.8581 41.672 32.9913 41.672 31.929C41.672 30.8668 40.8167 30 39.7685 30C38.7203 30 37.865 30.8668 37.865 31.929C37.865 32.9913 38.7203 33.8581 39.7685 33.8581ZM39.7685 35.1419C37.7299 35.1419 35.537 36.2368 35.537 37.5923V39H44V37.5923C44 36.2368 41.8071 35.1419 39.7685 35.1419ZM26.2315 33.8581C27.2862 33.8581 28.135 32.9913 28.135 31.929C28.135 30.8668 27.2797 30 26.2315 30C25.1833 30 24.328 30.8668 24.328 31.929C24.328 32.9913 25.1833 33.8581 26.2315 33.8581ZM26.2315 35.1419C24.1929 35.1419 22 36.2368 22 37.5923V39H30.463V37.5923C30.463 36.2368 28.2701 35.1419 26.2315 35.1419Z" fill="white"/>
<path d="M33.5 32.7117C34.8018 32.7117 35.8588 31.6547 35.8529 30.3529C35.8529 29.0511 34.7959 27.9941 33.494 28C32.1922 28 31.1412 29.057 31.1412 30.3589C31.1412 31.6607 32.1982 32.7117 33.5 32.7117ZM33.5 34.2883C30.8485 34.2883 28 35.6976 28 37.4294V39H39V37.4294C39 35.6916 36.1515 34.2883 33.5 34.2883Z" fill="white"/>
<path d="M36 44H44V46H36V44Z" fill="white"/>
<path d="M48.544 18H17.456C16.1005 18 15 19.062 15 20.37V45.636C15 46.938 16.1005 48 17.456 48H48.544C49.8995 48 51 46.938 51 45.63V20.37C50.9938 19.062 49.8995 18 48.544 18ZM47.7233 44.844H18.2705V21.156H47.7233V44.844Z" fill="white"/>
</svg>

<svg width="66" height="66" fill="none" xmlns="http://www.w3.org/2000/svg">
    <path d="M33 66c18.225 0 33-14.775 33-33S51.225 0 33 0 0 14.775 0 33s14.775 33 33 33Z" fill="#A1A1A1"/>
    <path d="M39.769 33.858c1.054 0 1.903-.867 1.903-1.929S40.817 30 39.769 30c-1.049 0-1.904.867-1.904 1.929s.855 1.93 1.904 1.93Zm0 1.284c-2.04 0-4.232 1.095-4.232 2.45V39H44v-1.408c0-1.355-2.193-2.45-4.231-2.45Zm-13.537-1.284c1.054 0 1.903-.867 1.903-1.929S27.28 30 26.231 30c-1.048 0-1.903.867-1.903 1.929s.855 1.93 1.904 1.93Zm0 1.284c-2.04 0-4.232 1.095-4.232 2.45V39h8.463v-1.408c0-1.355-2.193-2.45-4.232-2.45Z" fill="#fff"/>
    <path d="M33.5 32.712a2.351 2.351 0 0 0 2.353-2.36A2.351 2.351 0 0 0 33.494 28a2.355 2.355 0 1 0 .006 4.712Zm0 1.576c-2.651 0-5.5 1.41-5.5 3.141V39h11v-1.57c0-1.738-2.849-3.142-5.5-3.142ZM36 44h8v2h-8v-2Z" fill="#fff"/>
    <path d="M48.544 18H17.456C16.101 18 15 19.062 15 20.37v25.266C15 46.938 16.1 48 17.456 48h31.088C49.9 48 51 46.938 51 45.63V20.37c-.006-1.308-1.1-2.37-2.456-2.37Zm-.82 26.844H18.27V21.156h29.452v23.688Z" fill="#fff"/>
</svg>
